imgs/info.svg

<svg width="24" height="24" fill="none" xmlns="http://www.w3.org/2000/svg"><path d="M12 0C5.383 0 0 5.383 0 12s5.383 12 12 12 12-5.383 12-12S18.617 0 12 0zm-.5 19a1.5 1.5 0 11.001-3.001A1.5 1.5 0 0111.5 19zm4.311-8.873c-.309.495-.896 1.051-1.762 1.669-1.401 1.036-1.363 1.266-1.363 2.204h-2.457c0-.733-.016-1.296.38-1.981.253-.439.717-.906 1.391-1.4.809-.578 1.595-1.135 1.595-2.105 0-.909-.778-1.233-1.687-1.233-.927 0-1.984.303-3.171.909L7.726 6.16c2.157-1.209 5.561-1.756 7.422-.241 1.366 1.113 1.374 3.07.663 4.208z" fill="#FD3E72"/></svg>

<svg width="24" height="24" viewBox="0 0 24 24" fill="none" xmlns="http://www.w3.org/2000/svg">
<path d="M12 0C5.383 0 0 5.383 0 12C0 18.617 5.383 24 12 24C18.617 24 24 18.617 24 12C24 5.383 18.617 0 12 0ZM11.5 19C10.672 19 10 18.328 10 17.5C10 16.672 10.672 16 11.5 16C12.328 16 13 16.672 13 17.5C13 18.328 12.328 19 11.5 19ZM15.811 10.127C15.502 10.622 14.915 11.178 14.049 11.796C12.648 12.832 12.686 13.062 12.686 14H10.229C10.229 13.267 10.213 12.704 10.609 12.019C10.862 11.58 11.326 11.113 12 10.619C12.809 10.041 13.595 9.484 13.595 8.514C13.595 7.605 12.817 7.281 11.908 7.281C10.981 7.281 9.924 7.584 8.737 8.19L7.726 6.16C9.883 4.951 13.287 4.404 15.148 5.919C16.514 7.032 16.522 8.989 15.811 10.127Z" fill="#FD3E72"/>
</svg>
